public/logos/codeigniter.svg

<svg width="2105" height="2500" viewBox="0 0 256 304" xmlns="http://www.w3.org/2000/svg" preserveAspectRatio="xMinYMin meet"><path d="M13.104 287.306c-5.204 0-6.717-3.03-6.717-7.57 0-1.513.19-3.22.424-5.018 1.14-7.851 3.923-12.343 10.64-12.343 4.543 0 6.758 2.032 6.758 5.722v1.799h4.507c.05 0 .05-1.656.05-2.033 0-5.392-3.265-10.506-11.308-10.506-10.929 0-15.423 5.937-17.079 17.576-.237 1.562-.379 3.02-.379 4.576 0 6.86 2.699 13.1 12.349 13.1 7.332 0 11.687-3.575 14.24-7.975l-4.306-2.9c-2.79 4.401-5.82 5.572-9.179 5.572zm29.57-21.668c-8.754 0-12.536 4.492-13.813 13.432a23.325 23.325 0 0 0-.24 3.124c0 5.77 2.697 10.362 10.17 10.362 8.754 0 12.587-4.685 13.864-13.486.142-1.134.237-2.175.237-3.215.002-5.865-2.788-10.217-10.218-10.217zm3.643 13.435c-.947 6.483-2.979 8.47-6.814 8.47-3.073 0-4.586-1.278-4.586-5.11 0-.947.096-2.081.284-3.36.947-6.433 2.839-8.42 6.718-8.42 3.123 0 4.682 1.277 4.682 5.156 0 .946-.096 2.035-.284 3.264zm28.58-21.246l-1.465 8.685c-.094.755-.046.504.24 1.214-1.372-1.04-3.834-1.728-5.49-1.728-7.854 0-12.252 3.555-13.67 13.49a19.414 19.414 0 0 0-.237 3.171c0 7.241 4.257 9.94 9.98 9.94 2.416 0 4.78.05 6.623-1.509l.471 2.943h4.543l5.298-36.206h-6.293zm-4.494 28.342c-2.127 1.274-4.207 1.562-5.484 1.562-3.454 0-4.4-1.799-4.4-4.683 0-1.089.142-2.363.333-3.739 1.086-7.521 3.5-8.848 6.623-8.848 2.032 0 3.592.333 5.062 1.139l-2.134 14.569zm24.603-20.531c-8.66 0-12.725 4.113-14.099 13.432-.144 1.137-.239 2.226-.239 3.266 0 6.387 3.266 10.22 10.454 10.22 5.583 0 9.75-2.32 11.972-6.578l-4.779-1.94c-1.37 2.08-3.215 3.5-6.48 3.5-3.5 0-4.92-.942-4.92-4.065 0-.616.048-1.511.143-1.511h17.076c.24-2.414.52-4.12.52-5.535 0-4.728-1.796-10.79-9.648-10.79zm3.263 11.499H87.861c1.043-2.414 2.79-6.15 6.387-6.15 2.79 0 4.164 1.631 4.164 4.422-.003.473-.046 1.728-.143 1.728zm24.591-12.069l.567-4.827h-13.343l-.565 4.827h3.5l-3.782 24.137h-3.505l-.564 4.828h13.34l.57-4.828h-3.503l3.783-24.137h3.502zm27.11 7.241l1.705-4.827h-4.589l-3.309.683c-1.846-1.18-4.354-2.066-6.717-2.066-6.768 0-12.537 3.268-12.537 10.697 0 2.084.756 3.766 1.653 4.903-1.416.755-2.647 2.02-2.647 3.726 0 .756.282 1.53.852 2.238-2.841 1.706-4.586 4.533-4.586 7.842 0 6.39 6.669 7.753 11.778 7.753 6.433 0 14.099-1.47 14.099-9.655 0-2.79-1.75-4.97-6.812-5.916l-9.13-1.706c-1.04-.191-1.277-.522-1.277-.995 0-.71.43-1.086 1.136-1.086l.616.094c1.23.283 2.65.427 4.115.427 6.578 0 12.443-2.84 12.443-10.22 0-1.042-.188-1.747-.661-2.884.803.38 1.846.995 2.268.995h1.6v-.003zm-13.007 19.583c1.796.333 2.41.994 2.41 2.177 0 3.833-4.116 4.306-7.095 4.306-4.542 0-6.244-1.086-6.244-3.502 0-2.13.613-3.121 2.035-4.637l8.894 1.656zM135.02 279.5c-2.744 0-4.258-.992-4.258-3.36 0-3.5 2.035-5.535 5.583-5.535 2.839 0 4.212 1.183 4.212 3.498 0 3.502-1.989 5.397-5.537 5.397zm31.757-13.862c-2.65 0-5.013 1.3-7.948 3.616l-.425-1.772h-5.206l-3.642 26.55h6.292l2.745-20.134c1.846-1.135 4.115-2.783 6.055-2.783 2.364 0 3.218 1.141 3.218 3.316 0 .521-.05 2.064-.145 2.631l-2.315 16.97h6.293l2.315-17.108c.096-.8.19-2.119.19-2.874.003-4.5-2.129-8.412-7.427-8.412zm19.38 21.743l.048-.65 2.742-19.249h-10.456l-.659 4.827h4.586c-.379 0-.615.423-.661.804l-1.893 12.82c-.094.617-.14 1.901-.14 2.418 0 3.311 1.796 5.682 5.484 5.682h3.218l.71-4.828h-2.033c-.712 0-.946-1.257-.946-1.824zm4.067-29.554h-6.15c-.379 0-.379-1.393-.425-.92l-.854 6.802c-.049.428-.049 1.36.33 1.36h6.153c.379 0 .379-1.654.425-2.084l.854-5.25c.048-.473.048.092-.333.092zm12.831 29.715c-1.559 0-2.317-.663-2.317-2.08l.048-.097 1.987-13.056h7.19l2.175-4.827h-8.704l1.465-10.623-6.62 2.117-1.185 8.506h-3.831l-.661 4.827h4.446c-.425 2.414-.852.848-.898 1.323l-1.704 11.448c-.094.522-.094.9-.094 1.371 0 4.495 3.311 6.177 7.289 6.177 3.688 0 6.669-1.077 8.989-3.02l-2.935-3.61c-1.47.897-2.462 1.544-4.64 1.544zm23.087-21.904c-8.657 0-12.725 4.113-14.098 13.432-.142 1.137-.237 2.226-.237 3.266 0 6.387 3.264 10.22 10.454 10.22 5.583 0 9.75-2.32 11.97-6.578l-4.777-1.94c-1.37 2.08-3.217 3.5-6.483 3.5-3.498 0-4.92-.942-4.92-4.065 0-.616.051-1.511.146-1.511h17.077c.236-2.414.52-4.12.52-5.535 0-4.728-1.797-10.79-9.652-10.79zm3.266 11.499H219c1.04-2.414 2.788-6.15 6.387-6.15 2.79 0 4.164 1.631 4.164 4.422-.003.473-.049 1.728-.143 1.728zm23.797-11.5c-2.271 0-4.4 1.302-6.53 3.332l-.378-1.487h-5.202l-3.644 26.55h6.34l2.79-20.56c1.657-.991 3.549-1.838 5.347-1.838 1.137 0 2.223-.181 3.263-.04l.809-5.485c-.951-.189-1.897-.471-2.795-.471zM92.54 238.81c-14.32-6.19-27.72-21.922-27.752-38.019-.039-17.55 11.083-32.45 24.916-42.242-1.663 6.283-2.57 12.03 1.55 17.65 3.83 5.225 10.538 7.764 16.872 6.386 14.8-3.24 15.479-19.51 6.705-28.989-8.675-9.387-17.067-19.99-13.765-33.603 1.653-6.824 5.843-13.216 11.151-17.785-4.08 10.722 7.514 21.296 15.153 26.563 13.251 9.138 27.79 16.044 39.974 26.756 12.816 11.258 22.28 26.48 20.369 44.135-2.071 19.136-17.277 32.445-34.333 39.164 36.042-7.955 73.283-35.928 74.046-75.9.632-32.885-21.927-58.193-49.872-72.682l-1.46-.797c.767 1.861 1.018 3.444.989 4.861.25-1.045.42-2.119.468-3.227a15.728 15.728 0 0 1-.512 3.9l.044-.673a16.383 16.383 0 0 1-2.069 4.931l.41-.441c-5.575 9.247-20.668 11.255-28.124 1.68-11.986-15.402.251-32.008 1.963-48.318 2.143-20.441-10.676-40.285-26.57-52.16 8.754 14.161-2.779 32.896-12.006 43.37C101.74 53.523 90.859 62 80.982 71.225c-10.61 9.908-20.81 20.345-29.531 31.974-17.442 23.276-28.12 52.55-20.273 81.588 7.842 29.018 32.978 47.49 61.363 54.022z" fill="#EE4323"/></svg>

<?xml version="1.0" encoding="utf-8"?>
<svg viewBox="28.5603 0 198.8787 238.826" width="198.8787" height="238.826" xmlns="http://www.w3.org/2000/svg">
  <path d="M 92.54 238.81 C 78.22 232.62 64.82 216.888 64.788 200.791 C 64.749 183.241 75.871 168.341 89.704 158.549 C 88.041 164.832 87.134 170.579 91.254 176.199 C 95.084 181.424 101.792 183.963 108.126 182.585 C 122.926 179.345 123.605 163.075 114.831 153.596 C 106.156 144.209 97.764 133.606 101.066 119.993 C 102.719 113.169 106.909 106.777 112.217 102.208 C 108.137 112.93 119.731 123.504 127.37 128.771 C 140.621 137.909 155.16 144.815 167.344 155.527 C 180.16 166.785 189.624 182.007 187.713 199.662 C 185.642 218.798 170.436 232.107 153.38 238.826 C 189.422 230.871 226.663 202.898 227.426 162.926 C 228.058 130.041 205.499 104.733 177.554 90.244 L 176.094 89.447 C 176.861 91.308 177.112 92.891 177.083 94.308 C 177.333 93.263 177.503 92.189 177.551 91.081 C 177.544 92.397 177.372 93.708 177.039 94.981 L 177.083 94.308 C 176.668 96.054 175.969 97.72 175.014 99.239 L 175.424 98.798 C 169.849 108.045 154.756 110.053 147.3 100.478 C 135.314 85.076 147.551 68.47 149.263 52.16 C 151.406 31.719 138.587 11.875 122.693 0 C 131.447 14.161 119.914 32.896 110.687 43.37 C 101.74 53.523 90.859 62 80.982 71.225 C 70.372 81.133 60.172 91.57 51.451 103.199 C 34.009 126.475 23.331 155.749 31.178 184.787 C 39.02 213.805 64.156 232.277 92.541 238.809 L 92.54 238.81 Z" fill="#EE4323"/>
</svg>
